X:1
T:AH! PER L'ULTIMA VOLTA!
T:Turandot: Act I
T:Giacomo Puccini Piano Reduction by Guido Zuccoli 
%%score ( 1 2 ) { ( 3 4 5 ) ( 6 7 8 ) }
L:1/8
Q:1/2=40
M:4/4
K:Gb
V:1 treble nm="Piano"
V:2 treble 
V:3 treble nm="Piano"
V:4 treble 
V:5 treble 
V:6 bass nm="Piano"
V:7 bass 
V:8 bass 
V:1
"^(And.te lento sostenuto)" z8 | z8[Q:1/4=78][Q:1/4=50] || %2
[M:3/2][Q:1/2=39] z12[Q:1/4=120]"^Sostenendo" | z12 ||[M:2/2] z8 | z8 | z8 | z8 | z8 | z8 | z8 | %11
 z8 | z8 ||[M:9/4][Q:1/4=141]"^a tempo" z18 ||[M:6/4] z12 ||[M:9/4] z18 | z18 ||[M:6/4] z12 || %18
[M:9/4] z18 |[Q:1/4=148] z18[Q:1/4=155][Q:1/4=162] ||[M:6/4] z12[Q:1/4=164] || %21
[M:9/4] z18[Q:1/4=168] |[Q:1/4=172] z18 ||[M:6/4][Q:1/4=180] z12 || %24
[M:9/4] z18[Q:1/4=192][Q:1/4=178][Q:1/4=168][Q:1/4=158][Q:1/4=148][Q:1/4=92] || %25
[M:3/2] z12[Q:1/2=68][Q:1/2=42] | z12[Q:1/2=80][Q:1/2=48] | z12[Q:1/2=80][Q:1/2=48] || %28
[M:9/4][Q:1/4=160] z18 | z18[Q:1/4=120]"^poco rit." |[Q:1/4=178] z18 ||[M:6/4] z12 ||[M:9/4] z18 | %33
 z18 ||[M:6/4] z12 ||[M:9/4] z18 | z6 z2 z2!ff! [Gg]2 [Ff]4 [Dd]2 | %37
[M:6/4] [Ee]4 [Gg]2 [Ff]4 [Dd]2 |[M:9/4] [Ee]4 [Gg]2 [Ff]2 [Ee]2 [Dd]2 [Ee]4- [Ee]!>![Gg] | %39
 !>![Aa]6- [Aa]4 [Cc]2 [B,B]4 [G,G]2 |[M:6/4] [A,A]4 [Cc]2 [B,B]4 [G,G]2 | %41
[M:9/4] [A,A]4 [Cc]2 [B,B]2 [A,A]2 [G,G]2 [A,A]4- [A,A]!>![B,AB=d] | %42
!fff! [EGBe]12- [EGBe]4 [DFAd][CEGc] | [G__Bdg]12- [GBdg]4 [=E^G=B=e][=D^F=A=d] | %44
 [=A^c=e=a]12- [Acea]6- |[Q:1/4=120]"_rall." [Acea]12- [Acea]6 | %46
[K:D][M:4/4][Q:1/4=58]"^Largamente" !>![F,F]2 !>![F,F]!>![A,A] !>![B,B]!>![Dd]!>![Dd]!>![B,B] | %47
 !>![A,A]7/2 [Ad]/4[Ad]/4 [=ce]2- [ce] z | [F,F]2 [F,F][A,A] [B,B][Dd][Dd][B,B] | %49
 !>![A,A]7/2 [FAd]/4[FAd]/4 [G=ce]2- [Gce] z |[K:Gb][M:3/4][Q:1/4=60]"_Energico-movendo" z6 | z6 || %52
[M:4/4] z8 ||[M:3/4] z6 |[Q:1/4=60]"^a tempo" z6 |[Q:1/4=56]"^sostenendo" z6 | z6 | z6 | z6 |] %59
V:2
 x8 | x8 ||[M:3/2] x12 | x12 ||[M:2/2] x8 | x8 | x8 | x8 | x8 | x8 | x8 | x8 | x8 ||[M:9/4] x18 || %14
[M:6/4] x12 ||[M:9/4] x18 | x18 ||[M:6/4] x12 ||[M:9/4] x18 | x18 ||[M:6/4] x12 ||[M:9/4] x18 | %22
 x18 ||[M:6/4] x12 ||[M:9/4] x18 ||[M:3/2] x12 | x12 | x12 ||[M:9/4] x18 | x18 | x18 || %31
[M:6/4] x12 ||[M:9/4] x18 | x18 ||[M:6/4] x12 ||[M:9/4] x18 | x18 |[M:6/4] x12 |[M:9/4] x18 | x18 | %40
[M:6/4] x12 |[M:9/4] x18 | x18 | x12 !stemless![^F=A^c^f]2 x4 | x18 | x18 |[K:D][M:4/4] x8 | %47
 x7/2 [F,A,DF]/4[F,A,DF]/4 [G,=CEG]2- [G,CEG] x | x8 | x7/2 [F,A,D]/4[F,A,D]/4 [G,=CE]2- [G,CE] x | %50
[K:Gb][M:3/4] x6 | x6 ||[M:4/4] x8 ||[M:3/4] x6 | x6 | x6 | x6 | x6 | x6 |] %59
V:3
!mf! z4!mf! [B,B]4- | (3B2 (B2 B2!p!"^rall." (3[B,B]4"_espress." [G,G][A,A] || %2
[M:3/2]!ped!{/B,)} B8- (3:2:4B3 ([A,A][G,G][A,A]!ped-up! | %3
!ped! A8) !tenuto![Gceg]2 !tenuto![Acea]2!ped-up! ||[M:2/2]!ped! [Bgb]8[K:bass]!ped-up! | %5
!ped! A,,2[K:treble]!mf!"^molto espressivo" !tenuto![Fef]2 !tenuto![df]2 !tenuto![cg]2!ped-up! | %6
!ped! !slide![F-Bf-]8!ped-up! |!ped! [Ff]2 ([Ff]2"_cresc." [Aa]3 [Ff])!ped-up! | %8
!ped! [F-Bf-]8!ped-up! |!f!!ped! [Ff]2 [ff']2 !fermata![bb']3 [ff']!ped-up! | %10
!ped! (3[ff']4- [ff']([dd'] [ee']4-) | %11
 (3[ee']4- [ee']!<(!(B!ped-up!!ped! (3[Cc]4-)!<)! [Cc]!<(![G,G]!ped-up! | %12
!ped! (3[A,A]4-!<)! [A,A]!<(!E!ped-up!!ped! (3F4-!<)! FD!ped-up! || %13
[M:9/4]"^con calma tragica"!p!!ped! !///-![B,E]3 G,3 !///-![B,E]2 G,2 !///-![B,G] G,!ped-up!!ped! !///-![DF]2 A,2 !///-![A,D] F,!ped-up! || %14
[M:6/4]!ped! !///-![B,E]2 G,2 !///-![B,G] G,!ped-up!!ped! !///-![DF]2 A,2 !///-![A,D] F,!ped-up! || %15
[M:9/4]!ped! !///-![B,E]2 G,2 !///-![B,G] G,!ped-up!!ped! F2 E2 D2!ped-up!!ped! !///-![B,E]2 (G,2 [G,B,E])!>![B,EG]!ped-up! | %16
!ped! !///-![EA]3 C3 !///-![EA]2 C2!ped-up!!ped! !///-![Ec] C !///-![GB]2 E2 !///-![EG] B,!ped-up! || %17
[M:6/4]!ped! !///-![EA]2 C2 !///-![Ec] C!ped-up!!ped! !///-![GB]2 E2 !///-![EG] B,!ped-up! || %18
[M:9/4]!ped! !///-![EA]2 C2 !///-![Ec] C!ped-up!!ped! B2 A2 G2!ped-up!!ped! !///-![EA]2-!<(! C2- [CEA]!>![AB=d]!ped-up!!<)! | %19
!ped! ([GBe]6- [GBe]4!p!"^cantando" [Gg]2!ped-up!!ped! ([FA_df]4 [DFAd]2))!ped-up! || %20
[M:6/4]"_sempre cresc. a poco a poco"!ped! (([EGBe]4 [Gg]2)!ped-up!!ped! [F-Adf]4 [DFAd]2)!ped-up! || %21
[M:9/4]!ped! ([EGBe]4 [Gg]2)!ped-up!!ped! !tenuto![Ff]2 !tenuto![Ee]2 !tenuto![Dd]2!ped-up!!ped! [EGBe]4- [EGBe]!tenuto![GBeg]!ped-up! | %22
!ped! (!>![Aa]6- [Aa]4 [cc']2!ped-up!!ped! ([Bb]4 [Gg]2))!ped-up! || %23
[M:6/4]!ped! ([Aa]4 [cc']2!ped-up!!ped! [Bb]4 [Gg]2)!ped-up! || %24
[M:9/4]!ped! ([Aa]4 [cc']2!ped-up!!ped! [Bb]2 [Aa]2 [Gg]2!ped-up!!ped! [Aa]4-) [Aa]!ped-up!!>![ab=d'] || %25
[M:3/2] !>![egbe'] z z/ (G,/B,/E/"_cresc. sempre" F/G/B/e/) !tenuto![Fef]2 !tenuto![F_df]2 !tenuto![Gcg]2 | %26
!ped! [FBf]2- [FBf]/(G,/B,/E/ F/G/B/e/)!ped-up! !tenuto![Ff]2 !tenuto![Aa]3 !tenuto![Ff] | %27
 [FBf]2- [FBf]/!<(! (G/B/e/ f/g/b/!<)!!f!e'/)!8va(! [ff']2 !fermata![bb']3 [ff']!8va)! || %28
[M:9/4]!ped! [ff']4- [ff']!<(![dd'] [ee']6-!<)!!>(! [ebe']4- [ebe']!<(!([Be-g-b]!ped-up!!>)! | %29
!ped!!<(! [cegc']4-)!<)! [cegc']!<(!([Gc-e-g]!ped-up!!ped! [Acea]4-)!<)!!<)!!>(! [Acea]!<(!([Ece]!ped-up!!ped! !>![FAdf]4-)!<)! [FAdf][DFAd]!>)!!ped-up! | %30
!p! (e6- e4 g2 f4 d2) ||[M:6/4] (e4 g2 f4 d2) ||[M:9/4] (e4 g2 f2 e2 d2 e4- e)g | %33
 (a6- a4 c'2 b4 g2) ||[M:6/4]!ped! (a4 c'2!ped-up!!ped! b4 g2)!ped-up! || %35
[M:9/4]!ped! (a4 c'2!ped-up!!ped!!<(! b2 a2 g2!ped-up!!<(! a4- a)!>![ab=d']!<)!!<)! | %36
!f!!ped! [ebe']6- [ebe']4 [gg']2!ped-up!!ped! [ff']4 [d!courtesy!_d']2!ped-up! | %37
[M:6/4]!ped! [ee']4"_incalze cressc. sempre" [gg']2!ped-up!!ped! [ff']4 [dd']2!ped-up! | %38
[M:9/4]!ped! [ee']4 [gg']2!ped-up!!ped! [ff']2 [ee']2 [dd']2!ped-up!!ped! [ee']4- e'[be'g']!ped-up! | %39
!ped! [ac'e'a']Acfac' e'ac'e'a'c''!ped-up!!ped! ([be'g'b']e')(e'b)[gbe'g']b!ped-up! | %40
[M:6/4]!ped! !arpeggio![ac'e'a']ac'e'a'c''!ped-up!!ped! (!arpeggio![be'g'b']e')(e'b)([gbe'g']b)!ped-up! | %41
[M:9/4]!ped! [ac'e'a']ac'e'a'c''!ped-up!!ped! ([e'g'b']b)([e'a']b)([e'g']b)!ped-up!!ped! !arpeggio![ac'e'a']!>!A!>![EAc]!>![Ace]!>![cea]!>![fab=d']!ped-up! | %42
!fff! !>![egbe'] z z2 z2 z6 !>![egbe']2 z2 z2 | z6 z6 !>![g__bd'g']2 z2 z2 | %44
 z6 z6!8va(! !>![=a^c'=e'=a']2!8va)! z2 z2 | !fermata!z18 | %46
[K:D][M:4/4]!fff! !arpeggio![FAdf]2 [Ff][Aa] !arpeggio![Begb]ddB | %47
 [Adfa]7/2 !>![Aa]/4[Bb]/4 !///-![=cea]2 A2 |!fff! !arpeggio![FAdf]2 [Ff][Aa] !arpeggio![Begb]ddB | %49
 [Adfa]7/2 !>![Aa]/4[Bb]/4 !///-![=cea]7/4 A7/4 !>![=f_a_bd']/ | %50
[K:Gb][M:3/4]!fff!!ped! !///-![gbe'] e- [egbe']!ped-up! z3/4 G/4 F7/4D/4 | %51
!ped! (3:2:2E2 !>!G!ped-up! (3!>!F!>!E!>!D !>!E7/4G/4 || %52
[M:4/4]!ped! A2 !>![ac'e'a']2 !fermata!z z3/4!ped-up! [cc']/4 [Bb]7/4[Gg]/4 || %53
[M:3/4]"^poco rall." (3:2:2[Aa]2 !>![cc'] (3!>![Bb]!>![Aa]!>![Gg] !>![Aa]7/4!>![fab=d']/4 | %54
!ped!"^con forza crescente" !///-!!^![gbe']2- e2- [egbe']7/4!ped-up!!>![fab=d']/4 | %55
!ped! !///-!!^![gbe']2- e2- [egbe']7/4!ped-up!!>![fab=d']/4 | %56
!ped! !///-!!^![gbe']2- e2- [egbe']7/4!ped-up!!>![fab=d']/4 |!ped! !///-!!^![gbe']3!ped-up! e3 | %58
!ffff! !>![egbe'] z z4 |] %59
V:4
 x8 | B,4 x4 ||[M:3/2] x12 | z/ (A,/C/E/ F/A/c/e/ [cf]2- [cf]) z x4 || %4
[M:2/2] z3/2 (E/ F/G/B/e/!>(! f2- f)[K:bass]!>)!!<(!(E,/4D,/4C,/4B,,/4)!<)! | x2[K:treble] x6 | %6
 x8 | x2 e2- e d2 c | x8 | x8 | x8 | x4 [EA]4 | [CE]4 [A,D]4 ||[M:9/4] x18 ||[M:6/4] x12 || %15
[M:9/4] x6 !///-!D2 A,2 !///-!A, F, x6 | x18 ||[M:6/4] x12 ||[M:9/4] x6 !///-!G E !///-!E2 B,2 x6 | %19
 x18 ||[M:6/4] x12 ||[M:9/4] x6 A6 x6 | [ce]2 [Bd]2 [ce]2- [ce]2 [Bd]2 [ce]2 g2 agfe || %23
[M:6/4] [ce][Bd] [ce]2 [ea]2 g2 agfe || %24
[M:9/4] ([ce][df] [ce]2 [ea]2) (ge) (fB) (eB) [ce]([B=d][ce][df][eg])d ||[M:3/2] x12 | %26
 x6 !tenuto!e2 !tenuto!d2 !tenuto!c2 | x6!8va(! [c'e']2- [c'e']3 [bd']/[ac']/!8va)! || %28
[M:9/4] (b6 b6-) x6 | x18 | !arpeggio![EGB](B,EGBe) (GBeg)(Be) (!arpeggio![FBdf]dBF)(BE) || %31
[M:6/4] !arpeggio![EGB](B,EG)(Be) (!arpeggio![FBdf]dBF)(BF) || %32
[M:9/4] !arpeggio![EGB](B,EG)(Be) (dF)(cF)(BF) !arpeggio![EGB](EGBe[Be]) | %33
 (!arpeggio![Acea]ecAEC) (ECEA)(ca) (!arpeggio![Beg]eBG)(BG) || %34
[M:6/4] !arpeggio![Ace](CEA)(ca) (!arpeggio![Beg]eBG)(BG) || %35
[M:9/4] !arpeggio![Ace](CEA)(ca) (gB)(fB)(eB) [Ace]"^sciolte"Bceaf | a2 g2 f2 a2 g2 b2 b2 a2 f2 | %37
[M:6/4] a2 g2 b2 b2 a2 f2 |[M:9/4] a2 g2 b2 f6 e4 eg | x18 |[M:6/4] x12 |[M:9/4] x18 | x18 | x18 | %44
 x12!8va(! x2!8va)! x4 | x18 |[K:D][M:4/4] x8 | x8 | x8 | x8 |[K:Gb][M:3/4] x6 | x6 ||[M:4/4] x8 || %53
[M:3/4] x6 | x6 | x6 | x6 | x6 | x6 |] %59
V:5
 x8 | x8 ||[M:3/2] x12 | x12 ||[M:2/2] x7[K:bass] x | x2[K:treble] x6 | x8 | x8 | x8 | x8 | x8 | %11
 x8 | x8 ||[M:9/4] x18 ||[M:6/4] x12 ||[M:9/4] x18 | x18 ||[M:6/4] x12 ||[M:9/4] x18 | x18 || %20
[M:6/4] x12 ||[M:9/4] x18 | x18 ||[M:6/4] x12 ||[M:9/4] x18 ||[M:3/2] x12 | x12 | %27
 x6!8va(! x6!8va)! ||[M:9/4] x18 | x18 | !arpeggio!x6- !arpeggio!x4 x2 x4 x2 ||[M:6/4] x12 || %32
[M:9/4] x18 | x18 ||[M:6/4] x12 ||[M:9/4] x18 | x18 |[M:6/4] x12 |[M:9/4] x18 | x18 |[M:6/4] x12 | %41
[M:9/4] x18 | x18 | x18 | x12!8va(! x2!8va)! x4 | x18 |[K:D][M:4/4] x8 | x8 | x8 | x8 | %50
[K:Gb][M:3/4] x6 | x6 ||[M:4/4] x8 ||[M:3/4] x6 | x6 | x6 | x6 | x6 | x6 |] %59
V:6
!mf! z2 z3/2 (3E,,/4-G,,/4-B,,/4- [E,,G,,B,,E,]4- | [E,,G,,B,,E,]8 || %2
[M:3/2]!ped! z/ (G,,/B,,/E,/ F,/G,/B,/E/)!>(! [G,B,F]4- [G,B,F]!>)! z z2!ped-up! | %3
!ped! z3/2 (E,/ F,/A,/C/E/ F2- F) z !tenuto![G,CE]2 !tenuto![A,CE]2!ped-up! || %4
[M:2/2]!ped! z/ (G,,/B,,/E,/ F,/G,/B,/E/[K:treble] [FGB]2- [FGB]) z!ped-up! | %5
[K:bass]!ped! z/ (A,,/C,/E,/ F,/A,/C/E/ !tenuto![DF]2) !tenuto![CG]2!ped-up! | %6
!ped! [E,,B,]8!ped-up! |!ped! z/ (A,,/C,/E,/ F,/A,/C/E/- [EF]) D2 C!ped-up! |!ped! B,8!ped-up! | %9
!ped! z/"^m.s." (A,,/C,/E,/ F,/A,/C/E/) !fermata![CFB]3 F!ped-up! | %10
!ped! !///-![G,B,]2 D2!>(! !///-![G,B,]2 E2!>)! | !///-![G,B,]2 E2!ped-up!"^dim."!ped!!>(! z4 | %12
!ped! (3:2:4x2!ped-up! x2 x E,!ped-up!!ped! (3F,4- F,D,!>)! || %13
[M:9/4]!ped! (!arpeggio!E,6- E,4!ped-up! G,2!ped-up!!ped! F,4 D,2) || %14
[M:6/4]!ped! (!arpeggio!E,4 G,2!ped-up!!ped! F,4 D,2) || x6!ped-up! %15
[M:9/4]!ped! (!arpeggio!E,4 G,2!ped-up!!ped! F,2 E,2 D,2!ped-up!!ped! !arpeggio!E,4-) E,!>!G, | %16
!ped! (A,6- A,4!ped-up!!ped! C2 B,4 G,2)!ped-up! || %17
[M:6/4]!ped! (A,4 C2!ped-up!!ped! B,4 G,2) || x6!ped-up! %18
[M:9/4]!ped! (A,4 C2!ped-up!!ped! B,2 A,2 G,2!ped-up!!ped! A,4-) A,!>!B, | %19
!ped! E,2!p! (B,,2 E,2 G,2 B,2 E2!ped-up!!ped! D2 A,2 F,2)!ped-up! || %20
[M:6/4]!ped! G,2 B,2 E2!ped-up!!ped! D2 B,2 F,2 || x6!ped-up! %21
[M:9/4]!ped! (G,2 B,2 E2)!ped-up!!ped! (D2 B,2 F,2)!ped-up!!ped!(xB,,E,G,B,!tenuto!E) | %22
!ped! !>!C2 (E,2 A,2) (C2 E2 A2)!ped-up!!ped! (G2 E2 B,2)!ped-up! || %23
[M:6/4]!ped! (C2 E2 A2)!ped-up!!ped! (G2 E2 B,2) || x6!ped-up! %24
[M:9/4]!ped! (C2 E2 A2)!ped-up!!ped! (G2 F2 E2)!ped-up!!ped! z (E,A,CE!>!B,) || %25
[M:3/2] E, z z2 z4 !tenuto!D2 !tenuto!C2 | %26
!ped! z2 z3/2!f! [B,,G,B,]/ [B,,G,B,]2 z2 !tenuto!D2 !tenuto!C2 | x5!ped-up! %27
 z2 z3/2 [B,,G,B,]/ [B,,G,B,]2 z2 !tenuto!!fermata![CEB]3 !tenuto!F || %28
[M:9/4]!ped! !arpeggio![E,,-B,,-G,-B,F]12!ped-up! [E,,B,,G,]6 | %29
!ped! [A,,,A,,]6!ped-up!!ped! [A,,,A,,]6!ped-up!!ped! !>![B,,,B,,]6!ped-up! | %30
!p! (!arpeggio!G,2 B,2 E2) (G2 E2 B,2) (!arpeggio!D2 B,2 F,2) || %31
[M:6/4] (!arpeggio!G,2 B,2 E2) (!arpeggio!D2 B,2 F,2) || %32
[M:9/4] (!arpeggio!G,2 B,2 E2) (!arpeggio!D2 B,2 F,2) (!arpeggio!G,2 B,2 E2) | %33
 (G,2 F,2 E,2) (D,2 C,2 A,2) (G,2 B,2 E2) || %34
[M:6/4]!ped! (!arpeggio!G,2 F,4)!ped! (!arpeggio!F,2!ped-up! E,2 B,,2) || x6!ped-up! %35
[M:9/4]!ped!!<(! (G,2 F,4)!ped-up!!ped! (G,2 F,2 E,2)!ped-up! [A,,C,E,A,]4- [A,,C,E,A,]!>![B,,B,]!<)! | %36
!f!!ped! (A,B,)(G,B,)(F,B,) (A,B,)(G,B,)(B,,B,)!ped-up!!ped! (B,C)(A,C)(F,A,) | %37
[M:6/4]!ped! (A,B,)(G,B,)(B,,E,)!ped-up!!ped! (B,C)(A,C)(F,A,) | x6!ped-up! %38
[M:9/4]!ped! (A,B,)(G,B,)(B,,E,)!ped-up!!ped! (B,F,)(B,F,)(B,F,)!ped-up!!ped! (A,B,)(G,B,)(B,,E,) | %39
"^sciolte"!ped! z E,F,A,CE FF,A,CEA!ped-up!!ped! z .G,.B,.G,.E.B,!ped-up! | %40
[M:6/4]!ped! A,,A,,C,E,A,C!ped-up!!ped! z .G,.B,.G,.E.B, | x6!ped-up! %41
[M:9/4]!ped! z A,CEFA!ped-up!!ped! z [EG]AB,[EG]B,!ped-up!!ped! [A,,C,E,A,]4- [A,,C,E,A,]!>![B,,B,] | %42
 !>![E,,E,] z z2 z2 z6!8vb(! !>![E,,,B,,,E,,]2!8vb)! z2 z2 | %43
 z6 z6!8vb(! !>![G,,,D,,G,,]2!8vb)! z2 z2 | z6 z6 !>![=A,,,=E,,=A,,]2 z2 z2 | %45
 !///-!=A,,,6 =A,,6 !///-!A,,,3 A,,3 | %46
[K:D][M:4/4]{/D,,} !///-![D,F,A,]2 D2{/=C,,} !///-![=C,E,G,]2 =C2 | %47
{/D,,} !///-![D,F,A,]2 D2{/A,,,} !///-![A,,E,]2 G,2 | %48
{/D,,} !///-![D,F,A,]2 D2{/=C,,} !///-![=C,E,G,]2 =C2 | %49
{/D,,} !///-![D,F,A,]2 D2{/A,,,} !///-![A,,E,]7/4 G,7/4 !>![_B,,,_B,,]/ | %50
[K:Gb][M:3/4]!ped! !///-!E,,, E,,- [E,,,E,,] z3/4 G,/4 F,7/4D,/4 | x12!ped-up! %51
!ped! (3:2:2E,2 G, (3F,E,!ped-up!D, E,7/4G,/4 || %52
[M:4/4]!ped! A,2!ped-up! !>!!fermata![A,CEA]2- [A,CEA]z/>[C,,C,]/ [B,,,B,,]7/4[G,,,G,,]/4 || %53
[M:3/4] (3:2:2[A,,,A,,]2 !>![C,,C,] (3!>![B,,,B,,]!>![A,,,A,,]!>![G,,,G,,] !>![A,,,A,,]7/4!>![B,,,B,,]/4 | %54
!ped! !///-!!^!E,,,2- E,,2- [E,,,E,,]7/4!ped-up!!>![B,,,B,,]/4 | %55
!ped! !///-!!^!E,,,2- E,,2- [E,,,E,,]7/4!ped-up!!>![B,,,B,,]/4 | %56
!ped! !///-!!^!E,,,2- E,,2- [E,,,E,,]7/4!ped-up!!>![B,,,B,,]/4 |!ped! !///-!!^!E,,,3 E,,3!ped-up! | %58
 !>![E,,,E,,] z z4 |] %59
V:7
 x8 | x8 ||[M:3/2] E,,12 | [A,,,A,,]12 ||[M:2/2] E,,8[K:treble] |[K:bass] A,,,8 | %6
 z/ (G,,/B,,/E,/ F,/G,/B,/[G,B,E]/) ([G,B,F]/B,/G,/F,/ B,/G,/F,/B,,/) | [A,,,A,,]8 | %8
 z/ (G,,/B,,/E,/ F,/G,/B,/[G,B,E]/) ([G,B,F]/"^""^m.d."B,/G,/F,/ B,/G,/"_m.s."!<(!F,/B,,/)!<)! | %9
 !fermata![A,,,A,,]8 |{/[E,,B,,]-} [E,,B,,]8- | [E,,B,,]4 [A,,E,]4 | [F,,C,]4 [B,,,B,,]4 || %13
[M:9/4] B,,8 x10 ||[M:6/4] B,,12 ||[M:9/4] [E,,B,,]6 B,,6 [E,,B,,]6 | %16
 A,,4- A,, z .E,,2 .A,,,2 z2 E,6 ||[M:6/4] A,,6 E,6 ||[M:9/4] A,,6 E,6 A,,4- A,,!>!B,, | %19
 E,,6- E,, z z2 z2 B,,6 ||[M:6/4] E,,6 B,,6 ||[M:9/4] E,,6 B,,6 E,,6 | %22
 A,,4 A,, z .E,,2 .A,,,2 z2 C,6 ||[M:6/4] A,,6 E,6 ||[M:9/4] A,,6 E,6 A,,4- A,,B,, || %25
[M:3/2] !>!E,,4- E,,(3E,,/F,,/G,,/ !>!A,,2- A,,4 | !>![E,,,E,,-]4 E,,(3E,,/F,,/G,,/ !>!A,,2- A,,4 | %27
 [E,,,E,,-]4 E,,(3E,,/F,,/G,,/ [A,,,A,,]2- !fermata![A,,,A,,]4 ||[M:9/4] x18 | x18 | %30
 [E,,B,,]12 [B,,F,]6 ||[M:6/4] [E,,B,,]6 [B,,F,]6 ||[M:9/4] [E,,B,,]6 [B,,F,]6 [E,,B,,]6 | %33
 A,,6- A,,4 z2 !arpeggio![E,,B,,]6 ||[M:6/4] A,,6 E,,6 ||[M:9/4] A,,6 !arpeggio![E,,B,,]6 x6 | %36
 [E,,E,]6- [E,,E,]4 z2 B,,6 |[M:6/4] [E,,E,]6 B,,6 |[M:9/4] [E,,E,]6 B,,6 [E,,E,]6 | %39
 [A,,,A,,]6- [A,,,A,,]4 z2 [E,,E,]6 |[M:6/4] A,,,6 [E,,E,]6 |[M:9/4] [A,,,A,,]6 [E,,E,]6 x6 | %42
 x12!8vb(! x2!8vb)! x4 | x12!8vb(! x2!8vb)! x4 | x18 | x18 |[K:D][M:4/4] x8 | x8 | x8 | x8 | %50
[K:Gb][M:3/4] x15/4 [G,,,G,,]/4 [F,,,F,,]7/4[D,,,D,,]/4 | %51
 (3:2:2[E,,,E,,]2 !>![G,,,G,,] (3!>![F,,,F,,]!>![E,,,E,,]!>![D,,,D,,] !>![E,,,E,,]7/4[G,,,G,,]/4 || %52
[M:4/4] [A,,,A,,]2 x6 ||[M:3/4] x6 | x6 | x6 | x6 | x6 | x6 |] %59
V:8
 x8 | x8 ||[M:3/2] x12 | x12 ||[M:2/2] x4[K:treble] x4 |[K:bass] x8 | x8 | x8 | %8
 E,,4- E,,3 (E,,/4D,,/4C,,/4B,,,/4) | x7 (3[CE]/[B,D]/[A,C]/ | x8 | x8 | x8 || %13
[M:9/4] E,,4 z2 .B,,,2 .E,,2 z2 B,,6 ||[M:6/4] E,,6 B,,6 ||[M:9/4] x18 | x18 ||[M:6/4] x12 || %18
[M:9/4] x18 | x18 ||[M:6/4] x12 ||[M:9/4] x18 | x18 ||[M:6/4] x12 ||[M:9/4] x18 ||[M:3/2] x12 | %26
 x12 | x11 [B,D]/[A,C]/ ||[M:9/4] x18 | x18 | x18 ||[M:6/4] x12 || %32
[M:9/4] !arpeggio!x6 !arpeggio!x6 !arpeggio!x6 | x18 ||[M:6/4] x12 ||[M:9/4] x18 | x18 | %37
[M:6/4] x12 |[M:9/4] x18 | x18 |[M:6/4] x12 |[M:9/4] x18 | x12!8vb(! x2!8vb)! x4 | %43
 x12!8vb(! x2!8vb)! x4 | x18 | x18 |[K:D][M:4/4] x8 | x8 | x8 | x8 |[K:Gb][M:3/4] x6 | x6 || %52
[M:4/4] x8 ||[M:3/4] x6 | x6 | x6 | x6 | x6 | x6 |] %59

